docs/img/svg/check_green.svg

<svg xmlns="http://www.w3.org/2000/svg" preserveAspectRatio="xMidYMid" width="17" height="17" viewBox="0 0 17 17"><defs><style>.cls-1{fill:#7ebc3c;fill-rule:evenodd}</style></defs><path d="M15.86 4.25l-1.972-1.139-1.139-1.972h-2.277L8.5.001 6.527 1.139H4.25L3.111 3.112 1.139 4.25v2.277L.001 8.5l1.138 1.972v2.277l1.973 1.139L4.25 15.86h2.278L8.5 16.999l1.972-1.139h2.277l1.139-1.973 1.972-1.138v-2.277l1.139-1.973-1.139-1.972V4.25zm-8.127 7.728a.799.799 0 0 1-.576.233.798.798 0 0 1-.575-.233L4.097 9.493a.797.797 0 0 1 0-1.128l.658-.658a.797.797 0 0 1 1.128 0l1.274 1.274 3.96-3.959a.797.797 0 0 1 1.127 0l.658.658a.797.797 0 0 1 0 1.128l-5.169 5.17z" class="cls-1"/></svg>

<svg xmlns="http://www.w3.org/2000/svg" xmlns:xlink="http://www.w3.org/1999/xlink" preserveAspectRatio="xMidYMid" width="17" height="17" viewBox="0 0 17 17">
  <defs>
    <style>
      .cls-1 {
        fill: #7ebc3c;
        fill-rule: evenodd;
      }
    </style>
  </defs>
  <path d="M15.860,4.250 L13.888,3.111 L12.749,1.139 L10.472,1.139 L8.500,0.001 L6.527,1.139 L4.250,1.139 L3.111,3.112 L1.139,4.250 L1.139,6.527 L0.001,8.500 L1.139,10.472 L1.139,12.749 L3.112,13.888 L4.250,15.860 L6.528,15.860 L8.500,16.999 L10.472,15.860 L12.749,15.860 L13.888,13.887 L15.860,12.749 L15.860,10.472 L16.999,8.499 L15.860,6.527 L15.860,4.250 L15.860,4.250 ZM7.733,11.978 C7.574,12.136 7.365,12.214 7.157,12.211 C6.950,12.214 6.741,12.136 6.582,11.978 L4.097,9.493 C3.785,9.181 3.785,8.676 4.097,8.365 L4.755,7.707 C5.066,7.395 5.571,7.395 5.883,7.707 L7.157,8.981 L11.117,5.022 C11.428,4.711 11.933,4.711 12.244,5.022 L12.902,5.680 C13.214,5.992 13.214,6.497 12.902,6.808 L7.733,11.978 Z" class="cls-1"/>
</svg>
